dist/svg/base-station.svg

<!-- Generated by Trend Micro Style Portal -->
<svg version="1.1" xmlns="http://www.w3.org/2000/svg" width="16" height="16" viewBox="0 0 16 16">
  <title>base-station</title>
  <path fill="rgb(34,34,34)" d="M4.4 0.4c0.8-0.2 1.7-0.4 2.6-0.4 4.4 0 8 3.6 8 8 0 1.4-0.4 2.8-1 3.9l-1.3-0.8c0.5-0.9 0.8-2 0.8-3.2 0-3.6-2.9-6.5-6.5-6.5-0.7 0-1.4 0.1-2 0.3l-0.6-1.3zM7 3c-0.5 0-1 0.1-1.5 0.3l0.5 1.4c0.3-0.1 0.7-0.2 1-0.2 1.9 0 3.5 1.6 3.5 3.5 0 0.6-0.2 1.2-0.4 1.7l1.3 0.7c0.4-0.7 0.6-1.5 0.6-2.4 0-2.8-2.2-5-5-5zM10.2 11.8c-0.9 0.8-2 1.2-3.2 1.2-0.3 0-0.7 0-1-0.1v3.1h-2v-4c-1.2-1-2-2.4-2-4 0-1.5 0.7-2.9 1.8-3.8l2.1 2.5 3.1-0.7-0.7 3.5 1.9 2.3zM6.6 7.5l0.4 0.5 0.5 0.6 0.3-1.3-1.2 0.2z"></path>
</svg>

<svg width="16" height="16" viewBox="0 0 16 16" fill="rgb(34, 34, 34)" xmlns="http://www.w3.org/2000/svg"><title>base-station</title><path d="M4.4 0.4C5.2 0.2 6.1 0 7 0C11.4 0 15 3.6 15 8C15 9.4 14.6 10.8 14 11.9L12.7 11.1C13.2 10.2 13.5 9.1 13.5 7.9C13.5 4.3 10.6 1.4 7 1.4C6.3 1.4 5.6 1.5 5 1.7L4.4 0.4ZM7 3C6.5 3 6 3.1 5.5 3.3L6 4.7C6.3 4.6 6.7 4.5 7 4.5C8.9 4.5 10.5 6.1 10.5 8C10.5 8.6 10.3 9.2 10.1 9.7L11.4 10.4C11.8 9.7 12 8.9 12 8C12 5.2 9.8 3 7 3ZM10.2 11.8C9.3 12.6 8.2 13 7 13C6.7 13 6.3 13 6 12.9V16H4V12C2.8 11 2 9.6 2 8C2 6.5 2.7 5.1 3.8 4.2L5.9 6.7L9 6L8.3 9.5L10.2 11.8ZM6.6 7.5L7 8L7.5 8.6L7.8 7.3L6.6 7.5Z" fill="rgb(34, 34, 34)" fill-opacity="1.00"/></svg>
